public/quote.svg

<svg xmlns="http://www.w3.org/2000/svg" width="24" height="24" viewBox="0 0 24 24"><path d="M9.983 3v7.391c0 5.704-3.731 9.57-8.983 10.609l-.995-2.151c2.432-.917 3.995-3.638 3.995-5.849h-4v-10h9.983zm14.017 0v7.391c0 5.704-3.748 9.571-9 10.609l-.996-2.151c2.433-.917 3.996-3.638 3.996-5.849h-3.983v-10h9.983z"/></svg>

<svg xmlns="http://www.w3.org/2000/svg" width="24" height="24"><path d="M9.983 3v7.391C9.983 16.095 6.252 19.961 1 21l-.995-2.151C2.437 17.932 4 15.211 4 13H0V3h9.983zM24 3v7.391c0 5.704-3.748 9.571-9 10.609l-.996-2.151C16.437 17.932 18 15.211 18 13h-3.983V3H24z"/></svg>
